X: 37652
T: Snow Shoer's
R: reel
M: 4/4
K: Gminor
|:D2|G3A BABc|d^cde d=cBG|F3G AGAB|c=Bcd cAGF|
G3A BABc|d^cde d=cBc|d3e dcBA|B2 A2 G2:|

